!!!COM: Schubert, Franz
!!!CDT: 1797/01/31/-1828/11/19/
!!!CNT: Austrian
!!!OTL@@DE: Variationen &uuml;ber ein Thema von Anselm H&uuml;ttenbrenner
!!!OTL@EN: 13 Variations on a Theme by Anselm H&uuml;ttenbrenner
!!!OKY: A Minor
!!!SCT: D 576
!!!PDT: 1867///
!!!ODT: 1817/08//
!!!YEC: Copyright 2001 by Craig Stuart Sapp
!!!YEN: United States of America
!!!OMD: Var. 12
**kern	**kern	**kern
*clefF4	*clefG2	*clefG2
*k[]	*k[]	*k[]
*a:	*a:	*a:
*M2/4	*M2/4	*M2/4
*MM72	*MM72	*MM72
*>[A,A,B,B]	*>[A,A,B,B]	*>[A,A,B,B]
*>A	*>A	*>A
16.r	16c	4cc
.	16e	.
32AA'	.	.
8A^'	16d#	.
.	16e	.
8G#'	16dn	8b
.	16e	.
8A'	16c	8a
.	16e	.
=203	=203	=203
16.r	16B	4g#
.	16e	.
32EE'	.	.
8E^'	16d#	.
.	16e	.
8EE'	16A	8f#
.	16e	.
8E'	16B	8g#
.	16e	.
=204	=204	=204
16.r	16c	4a
.	16e	.
32AA'	.	.
8A^'	16d#	.
.	16e	.
8F#'	16dn	4dd
.	16a	.
8FF#'	16g#	.
.	16a	.
=205	=205	=205
16.r	16d	2b
.	16gn	.
32GG'	.	.
8G^'	16f#	.
.	16g	.
8GG'	16a	.
.	16g	.
8G'	16f#	.
.	16g	.
=206	=206	=206
16.r	16d	4b
.	16g	.
32GG'	.	.
8G'	16f#	.
.	16g	.
8A'	16f#	8cc
.	16d	.
8B'	16g	8dd
.	16fn	.
=207	=207	=207
16.r	16e	4ee
.	16g	.
32c'	.	.
8C^'	16f#	.
.	16g	.
8BB'	16g#	8dd
.	16e	.
8AA'	16a	8cc
.	16e	.
=208	=208	=208
16.r	16c	4a 4cc
.	16e	.
32EE'	.	.
8E^'	16d#	.
.	16e	.
16.r	16dn	4g# 4b
.	16e	.
32E'	.	.
8EE^'	16d#	.
.	16e	.
=209	=209	=209
16.r	16A	4e 4a
.	16c	.
32AAA'	.	.
8AA^'	16B	.
.	16c	.
8AAA'	16A	4r
.	16G#	.
8r	16A	.
.	16B	.
=210:|!|:	=210:|!|:	=210:|!|:
*>B	*>B	*>B
*	*^	*
16.r	4A	16c#	2a
.	.	16g	.
32AAA'	.	.	.
8AA'	.	16f#	.
.	.	[16g	.
8BB'	16d	4g]	.
.	16A	.	.
8C#'	16e	.	.
.	16A	.	.
=211	=211	=211	=211
16.r	16f	4a	4a
.	16G#	.	.
32D'	.	.	.
8DD'	16A	.	.
.	16G#	.	.
8D'	16f	8a	8a
.	16A	.	.
8C'	16e	8a#	8a#
.	16A#	.	.
=212	=212	=212	=212
*	*^	*	*
16.r	4B	16d#	2b	2b
.	.	16an	.	.
32BB'	.	.	.	.
8BB'	.	16g#	.	.
.	.	[16a	.	.
8C#'	16e	4a]	.	.
.	16B	.	.	.
8D#'	16f#	.	.	.
.	16B	.	.	.
*	*v	*v	*	*
=213	=213	=213	=213
16.r	16g#	4b	4b
.	16B	.	.
32E'	.	.	.
8EE'	16A#	.	.
.	16B	.	.
*	*v	*v	*
8E'	16gn	4r
.	16G	.
8Dn'	16B 16fn	.
.	16G	.
=214	=214	=214
*	*^	*
16.r	16c	4e	4e
.	16G	.	.
32C'	.	.	.
8CC'	16F#	.	.
.	16G	.	.
*^	*	*	*
8AA'	8A	16c#	8a	8a
.	.	16e	.	.
8GGn'	8B-	16c#	8b-	8b-
.	.	16e	.	.
*v	*v	*	*	*
=215	=215	=215	=215
16.r	16A	4a	4a
.	16d	.	.
32FF#'	.	.	.
8F#'	16c#	.	.
.	16e	.	.
8Fn'	16d#	8a 8b	8a 8b
.	16B	.	.
8FFn'	16d	8a 8ccn	8a 8ccn
.	16c	.	.
=216	=216	=216	=216
16.r	16c	4a 4cc	4a 4cc
.	16e	.	.
32EE'	.	.	.
8E'	16d#	.	.
.	16e	.	.
16.r	16dn	4g# 4b	4g# 4b
.	16e	.	.
32E'	.	.	.
8EE'	16d#	.	.
.	16e	.	.
=217	=217	=217	=217
16.r	16A	4.e 4.a	4.e 4.a
.	16c	.	.
32AAA'	.	.	.
8AA'	16B	.	.
.	16c	.	.
8AAA'	8A	.	.
8r	8r	8r	8r
*	*v	*v	*
=:|!	=:|!	=:|!
*-	*-	*-
